public/assets/icons/add.svg

<svg width="17" height="17" viewBox="0 0 17 17" fill="none" xmlns="http://www.w3.org/2000/svg">
<path fill-rule="evenodd" clip-rule="evenodd" d="M4.3429 0H11.9451C14.7155 0 16.2963 1.5644 16.2963 4.343V11.9533C16.2963 14.7155 14.7237 16.2963 11.9533 16.2963H4.3429C1.5644 16.2963 0 14.7155 0 11.9533V4.343C0 1.5644 1.5644 0 4.3429 0ZM8.8163 8.8244H11.1303C11.5051 8.8163 11.8066 8.5148 11.8066 8.14C11.8066 7.7652 11.5051 7.4637 11.1303 7.4637H8.8163V5.1659C8.8163 4.7911 8.5148 4.4896 8.14 4.4896C7.7651 4.4896 7.4637 4.7911 7.4637 5.1659V7.4637H5.1577C4.9785 7.4637 4.8074 7.537 4.677 7.6593C4.5548 7.7896 4.4814 7.9599 4.4814 8.14C4.4814 8.5148 4.7829 8.8163 5.1577 8.8244H7.4637V11.1304C7.4637 11.5052 7.7651 11.8067 8.14 11.8067C8.5148 11.8067 8.8163 11.5052 8.8163 11.1304V8.8244Z" fill="#7857FF"/>
</svg>

<?xml version="1.0"?>
<svg width="17" height="17" xmlns="http://www.w3.org/2000/svg" xmlns:svg="http://www.w3.org/2000/svg">
 <g class="layer">
  <title>Layer 1</title>
  <path clip-rule="evenodd" d="m4.34,0l7.61,0c2.77,0 4.35,1.56 4.35,4.34l0,7.61c0,2.77 -1.58,4.35 -4.35,4.35l-7.61,0c-2.78,0 -4.34,-1.58 -4.34,-4.35l0,-7.61c0,-2.78 1.56,-4.34 4.34,-4.34zm4.48,8.82l2.31,0c0.38,0 0.68,-0.31 0.68,-0.68c0,-0.37 -0.3,-0.68 -0.68,-0.68l-2.31,0l0,-2.29c0,-0.38 -0.31,-0.68 -0.68,-0.68c-0.37,0 -0.68,0.3 -0.68,0.68l0,2.29l-2.3,0c-0.18,0 -0.35,0.08 -0.48,0.2c-0.13,0.13 -0.2,0.3 -0.2,0.48c0,0.37 0.3,0.68 0.68,0.68l2.3,0l0,2.31c0,0.38 0.31,0.68 0.68,0.68c0.37,0 0.68,-0.3 0.68,-0.68l0,-2.31z" fill="#29e8b4" fill-rule="evenodd" id="svg_1"/>
 </g>
</svg>
